!!!!SEGMENT: pl-wtm--r-1227--019_lodwigowski-edward-stefan--wypil-wypil-a-nic-nie-zostawil.krn
!!!id: 18xx:1959
!!!COM: Łodwigowski, Edward Stefan
!!!COM-rism: pe30111147
!!!CDT: 1815/08/14-1895/11/12
!!!CNT: Polish
!!!OTL: Wypił wypił a nic nie zostawił
!!!PDT:
!!!SMS-siglum: PL-Wtm
!!!SMS-shelfmark: R 1227
!!!NIFC-rismID: 1001084129
!!!URL-scan: http://repozytorium.nifc.pl/skany/pl-wtm-nut--r1226-1227
!!!ONB-nifc: UWAGA: No. 90 („Zacni sąsiedzi” osobno), skan 00016
!!!SMS-variant:
!!!SMS-altvar:
**kern	**kern	**fing	**dynam
*part1	*part1	*	*part1
*staff2	*staff1	*	*
*clefF4	*clefG2	*	*
*k[f#c#g#]	*k[f#c#g#]	*	*
*M3/8	*M3/8	*	*
*>[A,A,B,B]	*>[A,A,B,B]	*>[A,A,B,B]	*>[A,A,B,B]
=1	=1	=1	=1
*all\right	*all\right	*	*
*>A	*>A	*>A	*>A
*^	*	*	*
*	*	*	*^	*
!	!	!LO:TX:b:Bi:t=Allegretto	!	!	!LO:DY:rj
4.A/	8A\L	(4ee 4cc#^\	5	3	p
.	8e 8c#\	.	.	.	.
.	8eJ 8c#\	8cc# 8a\)	.	.	.
*	*	*	*v	*v	*
=2	=2	=2	=2	=2
4.A/	8A\L	(4ee 4cc#^\	.	.
.	8e 8c#\	.	.	.
.	8eJ 8c#\	8cc# 8a\)	.	.
=3	=3	=3	=3	=3
4.E/	8E\L	16.ddLL 16.b\	.	.
.	.	32ddJJk 32b\	.	.
.	8d 8G#\	8ddL 8b'\	.	.
.	8dJ 8G#\	8ddJ 8b'\	.	.
=4	=4	=4	=4	=4
4.A/	8A\L	(16eeLL 16cc#\	.	.
.	.	16ddJJ 16b\	.	.
.	8e 8c#\	4cc# 4a\)	.	.
.	8eJ 8c#\	.	.	.
!!LO:LB:g=original
=5:|!|:	=5:|!|:	=5:|!|:	=5:|!|:	=5:|!|:
*>B	*>B	*>B	*>B	*>B
4.E/	8E\L	16.bLL 16.g#'/	2 4	.
.	.	32bJJk 32g#'/	.	.
.	8d 8B\	8bL 8g#'/	.	.
.	8dJ 8B\	8bJ 8g#'/	.	.
=6	=6	=6	=6	=6
4.E/	8E\L	16.cc#LL 16.a\	1 3	.
.	.	32cc#JJk 32a'\	.	.
.	8c# 8A\	8cc#L 8a'\	.	.
.	8c#J 8A\	8cc#J 8a'\	.	.
=7	=7	=7	=7	=7
4.E/	8E\L	16.ddLL 16.b'\	.	.
.	.	32ddJJk 32b'\	.	.
.	8B 8G#\	8ddL 8b'\	.	.
.	8BJ 8G#\	8ddJ 8b'\	.	.
=8	=8	=8	=8	=8
4.A/	8A\L	(16ddLL 16b\	.	.
.	.	16cc#JJ 16a\)	.	.
.	8e 8c#\	4cc# 4a\	.	.
.	8eJ 8c#\	.	.	.
=9	=9	=9	=9	=9
4.E/	8E\L	16.bLL 16.g#'/	2 4	.
.	.	32bJJk 32g#'/	.	.
.	8d 8B\	8bL 8g#'/	.	.
.	8dJ 8B\	8bJ 8g#'/	.	.
=10	=10	=10	=10	=10
4.E/	8E\L	16.cc#LL 16.a\	1 3	.
.	.	32cc#JJk 32a'\	.	.
.	8c# 8A\	8cc#L 8a'\	.	.
.	8c#J 8A\	8cc#J 8a'\	.	.
=11	=11	=11	=11	=11
!LO:N:vis=4	!	!	!	!
4.E/	8E\L	16.ddLL 16.b\	2 4	.
.	.	32ddJJk 32b\	3 5	.
.	8d 8G#\	8ddL 8b\	.	.
.	8dJ 8B\	8g#J [8e\	1 2	.
*v	*v	*	*	*
=12	=12	=12	=12
*	*^	*	*
8c# 8A'\	16b/LL	8e\]	4	.
.	16a/JJ	.	.	.
4c# 4A'\	4a'/	4e\	.	.
*	*v	*v	*	*
=:|!	=:|!	=:|!	=:|!
*-	*-	*-	*-
!!!system-decoration: {s1,s2}
!!!ENC: Marta Lawrence
!!!ENC: 2021-05-02
!!!ENC: Katarzyna Serwa
!!!END: 2021-04-19
